cssgg/arrow-long-left-c.svg

<svg
  width="24"
  height="24"
  viewBox="0 0 24 24"
  fill="none"
  xmlns="http://www.w3.org/2000/svg"
>
  <path
    fill-rule="evenodd"
    clip-rule="evenodd"
    d="M5.27 7.75737L1.0202 11.9928L5.25576 16.2426L6.67236 14.8308L4.85801 13.0103L17.1463 13.0525C17.5532 14.219 18.6604 15.0583 19.9663 15.0642C21.6231 15.0717 22.9723 13.7346 22.9798 12.0777C22.9872 10.4209 21.6501 9.07172 19.9933 9.06427C18.6867 9.05841 17.5715 9.88865 17.1547 11.0525L4.83934 11.0102L6.68182 9.17397L5.27 7.75737ZM18.9798 12.0598C18.9823 11.5075 19.432 11.0618 19.9843 11.0643C20.5366 11.0667 20.9823 11.5165 20.9798 12.0687C20.9773 12.621 20.5276 13.0667 19.9753 13.0642C19.423 13.0618 18.9773 12.612 18.9798 12.0598Z"
    fill="currentColor"
  />
</svg>

<svg viewBox="0 0 24 24" xmlns="http://www.w3.org/2000/svg"><path fill-rule="evenodd" d="M5.27 7.75l-4.25 4.23 4.23 4.24 1.41-1.42 -1.82-1.83 12.28.04c.4 1.16 1.51 2 2.82 2.01 1.65 0 3-1.33 3.01-2.99 0-1.66-1.33-3.01-2.99-3.02 -1.31-.01-2.43.82-2.84 1.98L4.8 10.94 6.64 9.1 5.22 7.68Zm13.7 4.3c0-.56.45-1 1-1s.99.45.99 1c-.01.55-.46.99-1.01.99 -.56-.01-1-.46-1-1.01Z"/></svg>
